X:1
T:Make Me More Like Jesus
T:Make Me More Like Jesus
T:Adam Geibel
T:Mrs. M. E. Baldwin, 1897
T:Public Domain Courtesy of the Cyber Hymnal™
C:Adam Geibel
Z:Public Domain
Z:Courtesy of the Cyber Hymnal™
%%score ( 1 2 ) ( 3 4 )
L:1/8
Q:1/4=75
M:2/4
K:A
V:1 treble 
V:2 treble 
V:3 bass 
V:4 bass 
V:1
 [CE][Ec] [Fd][Ec] | [CA]C [CE]2 | [CE][EA] [DG][CA] | [EB]2 [EB]2 | [CE][Ec] [Fd][Ec] | %5
w: 1.~Heav’n- ly Fa- ther,|this I pray,|Make me more like|Je- sus;|Lead me in the|
w: 2.~Fa- ther, teach me|day by day,|To be more like|Je- sus!|Teach me how to|
w: 3.~In sub- mis- sion,|faith, and love,|Make me more like|Je- sus!|Grant this bless- ing|
 [CA]C [CE]2 | [DF][Fd] [DG][DB] | [DB]2 [CA] z ||"^Refrain" [Ec][Ee] [Ee]2 | [EA][Ec] [Ec]2 | %10
w: heav’n- ly way,|Make me more like|Je- sus.|||
w: watch and pray,|And be more like|Je- sus.|More and more,|more and more,|
w: from a- bove,|Make me more like|Je- sus.|||
 [Ee][EA] [EB][Ec] | [Ec]2 [EB]2 | [CE][Ec] [Fd][Ec] | [CA]C [CE]2 | [DF][Fd] [DG][DB] | %15
w: |||||
w: More and more like|Je- sus;|Lead me in the|heav’n- ly way,|More and more like|
w: |||||
 [DB]2 [CA] z |] %16
w: |
w: Je- sus.|
w: |
V:2
 x4 | x C x2 | x4 | x4 | x4 | x C x2 | x4 | x4 || x4 | x4 | x4 | x4 | x4 | x C x2 | x4 | x4 |] %16
V:3
 [A,,A,][A,,A,] [A,,A,][A,,A,] | [A,,E,][A,,E,] [A,,A,]2 | [A,,A,][C,A,] [B,,E,][A,,E,] | %3
 [E,A,]2 [E,G,]2 | [A,,A,][A,,A,] [A,,A,][A,,A,] | [A,,E,][A,,E,] [A,,A,]2 | [D,A,][D,A,] E,E, | %7
 [A,,E,]2 [A,,E,] z || A,[A,C] [A,C]2 | [A,C]A, A,2 | [A,C][A,C] [G,B,]A, | [E,A,]2 [E,G,]2 | %12
 [A,,A,][A,,A,] [A,,A,][A,,A,] | [A,,E,][A,,E,] [A,,A,]2 | [D,A,][D,A,] E,E, | %15
 [A,,E,]2 [A,,E,] z |] %16
V:4
 x4 | x4 | x4 | x4 | x4 | x4 | x2 E,E, | x4 || A, x3 | x A, A,2 | x3 A, | x4 | x4 | x4 | x2 E,E, | %15
 x4 |] %16

